-- This song is written by Claude 3.5 for Christmas

setcps 2

resetCycles

d1 $ cat [  
        n "g5",
        n "e5",
        n "c5",
        n "g5",
        n "e5",
        n "a5",
        n "g5",
        n "f5",
        n "e5",
        n "f5",
        n "e5"
        ]  # s "superpiano"

d2 $ cat [
        n "c4",
        n "g3",
        n "e3",
        n "c4",
        n "g3",
        n "f3",
        n "c4",
        n "a3",
        n "g3",
        n "c4",
        n "c4"
        ]  # s "superpiano"

d1 silence

d2 silence
